poi/svg/1102.svg

<?xml version="1.0" encoding="UTF-8" standalone="no"?>
<svg
   xmlns:dc="http://purl.org/dc/elements/1.1/"
   xmlns:cc="http://creativecommons.org/ns#"
   xmlns:rdf="http://www.w3.org/1999/02/22-rdf-syntax-ns#"
   xmlns:svg="http://www.w3.org/2000/svg"
   xmlns="http://www.w3.org/2000/svg"
   xmlns:sodipodi="http://sodipodi.sourceforge.net/DTD/sodipodi-0.dtd"
   xmlns:inkscape="http://www.inkscape.org/namespaces/inkscape"
   inkscape:version="1.0 (4035a4fb49, 2020-05-01)"
   sodipodi:docname="1102.svg"
   id="svg20"
   version="1.2"
   viewBox="0 0 42.519639 42.519639"
   height="14.999999mm"
   width="14.999999mm">
  <metadata
     id="metadata24">
    <rdf:RDF>
      <cc:Work
         rdf:about="">
        <dc:format>image/svg+xml</dc:format>
        <dc:type
           rdf:resource="http://purl.org/dc/dcmitype/StillImage" />
        <dc:title>Qt SVG Document</dc:title>
      </cc:Work>
    </rdf:RDF>
  </metadata>
  <sodipodi:namedview
     inkscape:current-layer="svg20"
     inkscape:window-maximized="1"
     inkscape:window-y="-9"
     inkscape:window-x="-9"
     inkscape:cy="56.612023"
     inkscape:cx="23.884275"
     inkscape:zoom="6.3809115"
     fit-margin-bottom="0"
     fit-margin-right="0"
     fit-margin-left="0"
     fit-margin-top="0"
     showgrid="false"
     id="namedview22"
     inkscape:window-height="1013"
     inkscape:window-width="1920"
     inkscape:pageshadow="2"
     inkscape:pageopacity="0"
     guidetolerance="10"
     gridtolerance="10"
     objecttolerance="10"
     borderopacity="1"
     bordercolor="#666666"
     pagecolor="#ffffff" />
  <title
     id="title2">Qt SVG Document</title>
  <desc
     id="desc4">Generated with Qt</desc>
  <defs
     id="defs6" />
  <g
     transform="translate(5.25984,5.25984)"
     id="g18"
     stroke-linejoin="bevel"
     stroke-linecap="square"
     fill-rule="evenodd"
     stroke-width="1"
     stroke="#000000"
     fill="none">
    <g
       id="g10"
       font-style="normal"
       font-weight="400"
       font-size="7.8px"
       font-family="'MS Shell Dlg 2'"
       stroke="none"
       fill-opacity="1"
       fill="#3d97f1">
      <path
         id="path8"
         d="M 37.2598,16 C 37.2598,27.7415 27.7415,37.2598 16,37.2598 4.25851,37.2598 -5.25984,27.7415 -5.25984,16 -5.25984,4.25851 4.25851,-5.25984 16,-5.25984 27.7415,-5.25984 37.2598,4.25851 37.2598,16"
         fill-rule="evenodd"
         vector-effect="non-scaling-stroke" />
    </g>
    <g
       id="g14"
       font-style="normal"
       font-weight="400"
       font-size="7.8px"
       font-family="'MS Shell Dlg 2'"
       transform="translate(16,12.5984)"
       stroke="none"
       fill-opacity="0.94902"
       fill="#ffffff">
      <path
         id="path12"
         d="m -6.30762,-1.43311 c 0.22396,0 0.42342,0.09099 0.59839,0.27295 0.17497,0.18197 0.26245,0.405928 0.26245,0.671879 0,0.223958 -0.08748,0.4164223 -0.26245,0.5773923 -0.17497,0.1609697 -0.37443,0.2414547 -0.59839,0.2414547 -0.23795,0 -0.42692,-0.080485 -0.56689,-0.2414547 -0.13998,-0.16097 -0.20996,-0.3534343 -0.20996,-0.5773923 0,-0.265951 0.06998,-0.489909 0.20996,-0.671879 0.13997,-0.18196 0.32894,-0.27295 0.56689,-0.27295 m 0,2.099614 c 0.22396,0 0.42342,0.080485 0.59839,0.241455 0.17497,0.160971 0.26245,0.367431 0.26245,0.619381 0,0.13998 -0.02099,0.43392 -0.06299,0.88184 C -5.55176,2.8571 -5.61825,3.32251 -5.70923,3.80542 -5.80021,4.28833 -5.89469,4.72575 -5.99268,5.11768 -6.09066,5.5096 -6.19564,5.70557 -6.30762,5.70557 -6.4196,5.70557 -6.52108,5.5096 -6.61206,5.11768 -6.70304,4.72575 -6.78353,4.28833 -6.85352,3.80542 -6.9235,3.32251 -6.97949,2.8571 -7.02148,2.40918 -7.06348,1.96126 -7.08447,1.66732 -7.08447,1.52734 c 0,-0.25195 0.06998,-0.45841 0.20996,-0.619381 0.13997,-0.16097 0.32894,-0.241455 0.56689,-0.241455 M 9.2085,9.40088 C 9.01253,9.68083 8.95654,9.8208 9.04053,9.8208 L 11.833,14.7759 H 10.1113 L 9.98535,14.335 c -0.05599,0 -0.08398,-0.014 -0.08398,-0.042 0,-0.028 -0.028,-0.042 -0.08399,-0.042 H 0.74707 c -0.027994,0 -0.05249,0.007 -0.073486,0.021 -0.020996,0.014 -0.045492,0.021 -0.073486,0.021 L 0.558105,14.335 0.390137,14.7759 H -1.28955 L 1.60791,9.73682 1.41895,9.40088 -0.848633,8.09912 C -1.25456,7.90316 -1.45752,7.58822 -1.45752,7.1543 v -7.91553 c 0,-0.41992 0.20296,-0.73486 0.608887,-0.94482 0.335938,-0.25196 0.503906,-0.59489 0.503906,-1.02881 v -2.05762 c 0,-0.34994 0.122478,-0.66138 0.3674321,-0.93433 C 0.26766,-5.99976 0.565104,-6.16423 0.915039,-6.22021 L 4.98828,-7.08105 h 0.27295 0.33594 l 4.13623,0.86084 c 0.3079,0.05598 0.5774,0.22045 0.8083,0.4934 0.231,0.27295 0.3465,0.58439 0.3465,0.93433 v 2.05762 c 0,0.40592 0.2029,0.74886 0.6089,1.02881 0.3359,0.18196 0.5039,0.4969 0.5039,0.94482 V 7.1543 c 0,0.46191 -0.168,0.77685 -0.5039,0.94482 L 9.2085,9.40088 M 5.84912,-3.84766 c 0,0.16797 0.09098,0.25196 0.27295,0.25196 l 3.33838,0.69287 h 0.08398 c 0.23796,0 0.35694,-0.08399 0.35694,-0.25196 v -1.63769 c 0,-0.05599 -0.035,-0.11198 -0.10498,-0.16797 C 9.7264,-5.01644 9.64242,-5.04443 9.54443,-5.04443 L 6.20605,-5.69531 c -0.23795,0 -0.35693,0.09798 -0.35693,0.29394 v 1.55371 M 7.92773,10.8916 c 0.05599,0 0.09799,-0.014 0.12598,-0.042 0.028,-0.028 0.014,-0.07 -0.04199,-0.126 C 7.95573,10.6676 7.85425,10.5172 7.70728,10.2722 7.5603,10.0273 7.48682,9.87679 7.48682,9.8208 c -0.05599,0 -0.08399,-0.014 -0.08399,-0.04199 0,-0.028 -0.02799,-0.04199 -0.08398,-0.04199 H 3.22461 c -0.05599,0 -0.08398,0.01399 -0.08398,0.04199 0,0.02799 -0.028,0.04199 -0.08399,0.04199 0,0.05599 -0.08398,0.2065 -0.25195,0.4514 -0.16797,0.245 -0.25196,0.3954 -0.25196,0.4514 -0.06998,0.056 -0.08748,0.098 -0.05249,0.126 0.035,0.028 0.08049,0.042 0.13648,0.042 H 7.92773 M 5.26123,-2.04199 c -0.46191,0 -0.85734,0.17147 -1.18628,0.5144 -0.32894,0.34294 -0.49341,0.759361 -0.49341,1.24927 0,0.489909 0.16447,0.899332 0.49341,1.228271 0.32894,0.328939 0.72437,0.493409 1.18628,0.493409 0.50391,0 0.93083,-0.16447 1.28076,-0.493409 0.34994,-0.328939 0.5249,-0.738362 0.5249,-1.228271 0,-0.489909 -0.17496,-0.90633 -0.5249,-1.24927 -0.34993,-0.34293 -0.77685,-0.5144 -1.28076,-0.5144 m -4.51416,-1.1128 c 0,0.16797 0.111979,0.25196 0.33594,0.25196 H 1.16699 L 4.44238,-3.5957 c 0.16797,0 0.25196,-0.08399 0.25196,-0.25196 l 0.08398,-1.55371 c 0,-0.19596 -0.11198,-0.29394 -0.33594,-0.29394 H 4.3584 l -3.359377,0.65088 c -0.055989,0 -0.111979,0.02799 -0.167968,0.08398 -0.05599,0.05599 -0.083985,0.11198 -0.083985,0.16797 v 1.63769 M 1.33496,5.87354 C 1.6569,5.87354 1.92285,5.76506 2.13281,5.5481 2.34277,5.33114 2.44775,5.06868 2.44775,4.76074 2.44775,4.4668 2.34277,4.22534 2.13281,4.03638 1.92285,3.84741 1.6569,3.75293 1.33496,3.75293 1.02702,3.75293 0.778564,3.84741 0.5896,4.03638 0.400635,4.22534 0.306152,4.4668 0.306152,4.76074 c 0,0.30794 0.094483,0.5704 0.283448,0.78736 0.188964,0.21696 0.43742,0.32544 0.74536,0.32544 M 9.29248,13.0542 C 9.23649,12.9982 9.13851,12.8267 8.99854,12.5398 8.85856,12.2528 8.75358,12.1094 8.68359,12.1094 c 0,-0.056 -0.02799,-0.084 -0.08398,-0.084 H 1.94385 1.90186 c -0.028,0 -0.042,0.028 -0.042,0.084 -0.05599,0 -0.15747,0.1434 -0.30444,0.4304 -0.14697,0.2869 -0.24845,0.4584 -0.30444,0.5144 0,0.056 0.02799,0.084 0.08398,0.084 H 9.2085 c 0.05599,0 0.08398,-0.028 0.08398,-0.084 M 8.0957,4.76074 c 0,0.30794 0.09099,0.5704 0.27295,0.78736 0.18197,0.21696 0.43392,0.32544 0.75586,0.32544 0.30794,0 0.5634,-0.10848 0.76636,-0.32544 C 10.0938,5.33114 10.1953,5.06868 10.1953,4.76074 10.1953,4.4668 10.0938,4.22534 9.89087,4.03638 9.68791,3.84741 9.43245,3.75293 9.12451,3.75293 8.80257,3.75293 8.55062,3.84741 8.36865,4.03638 8.18669,4.22534 8.0957,4.4668 8.0957,4.76074 M -9.66699,6.81836 h 5.71094 V 14.7759 H -11.9556 V -5.69531 l 6.50882,1.40674 0.71387,1.30175 h -4.93408 v 9.80518"
         fill-rule="evenodd"
         vector-effect="none" />
    </g>
    <g
       id="g16"
       font-style="normal"
       font-weight="400"
       font-size="7.8px"
       font-family="'MS Shell Dlg 2'"
       stroke="none"
       fill-opacity="1"
       fill="#3d97f1" />
  </g>
</svg>

<?xml version="1.0" encoding="UTF-8" standalone="no"?>
<svg width="11.2889mm" height="11.2889mm"
 viewBox="0 0 32 32"
 xmlns="http://www.w3.org/2000/svg" xmlns:xlink="http://www.w3.org/1999/xlink"  version="1.2" baseProfile="tiny">
<title>Qt SVG Document</title>
<desc>Generated with Qt</desc>
<defs>
</defs>
<g fill="none" stroke="black" stroke-width="1" fill-rule="evenodd" stroke-linecap="square" stroke-linejoin="bevel" >

<g fill="#3d97f1" fill-opacity="1" stroke="none" transform="matrix(1,0,0,1,0,0)"
font-family="MS Shell Dlg 2" font-size="7.8" font-weight="400" font-style="normal" 
>
<path vector-effect="non-scaling-stroke" fill-rule="evenodd" d="M37.2598,16 C37.2598,27.7415 27.7415,37.2598 16,37.2598 C4.25851,37.2598 -5.25984,27.7415 -5.25984,16 C-5.25984,4.25851 4.25851,-5.25984 16,-5.25984 C27.7415,-5.25984 37.2598,4.25851 37.2598,16 "/>
</g>

<g fill="#ffffff" fill-opacity="0.94902" stroke="none" transform="matrix(1,0,0,1,16,12.5984)"
font-family="MS Shell Dlg 2" font-size="7.8" font-weight="400" font-style="normal" 
>
<path vector-effect="none" fill-rule="evenodd" d="M-6.30762,-1.43311 C-6.08366,-1.43311 -5.8842,-1.34212 -5.70923,-1.16016 C-5.53426,-0.97819 -5.44678,-0.754232 -5.44678,-0.488281 C-5.44678,-0.264323 -5.53426,-0.0718587 -5.70923,0.0891113 C-5.8842,0.250081 -6.08366,0.330566 -6.30762,0.330566 C-6.54557,0.330566 -6.73454,0.250081 -6.87451,0.0891113 C-7.01449,-0.0718587 -7.08447,-0.264323 -7.08447,-0.488281 C-7.08447,-0.754232 -7.01449,-0.97819 -6.87451,-1.16016 C-6.73454,-1.34212 -6.54557,-1.43311 -6.30762,-1.43311 M-6.30762,0.666504 C-6.08366,0.666504 -5.8842,0.746989 -5.70923,0.907959 C-5.53426,1.06893 -5.44678,1.27539 -5.44678,1.52734 C-5.44678,1.66732 -5.46777,1.96126 -5.50977,2.40918 C-5.55176,2.8571 -5.61825,3.32251 -5.70923,3.80542 C-5.80021,4.28833 -5.89469,4.72575 -5.99268,5.11768 C-6.09066,5.5096 -6.19564,5.70557 -6.30762,5.70557 C-6.4196,5.70557 -6.52108,5.5096 -6.61206,5.11768 C-6.70304,4.72575 -6.78353,4.28833 -6.85352,3.80542 C-6.9235,3.32251 -6.97949,2.8571 -7.02148,2.40918 C-7.06348,1.96126 -7.08447,1.66732 -7.08447,1.52734 C-7.08447,1.27539 -7.01449,1.06893 -6.87451,0.907959 C-6.73454,0.746989 -6.54557,0.666504 -6.30762,0.666504 M9.2085,9.40088 C9.01253,9.68083 8.95654,9.8208 9.04053,9.8208 L11.833,14.7759 L10.1113,14.7759 L9.98535,14.335 C9.92936,14.335 9.90137,14.321 9.90137,14.293 C9.90137,14.265 9.87337,14.251 9.81738,14.251 L0.74707,14.251 C0.719076,14.251 0.69458,14.258 0.673584,14.272 C0.652588,14.286 0.628092,14.293 0.600098,14.293 L0.558105,14.335 L0.390137,14.7759 L-1.28955,14.7759 L1.60791,9.73682 L1.41895,9.40088 L-0.848633,8.09912 C-1.25456,7.90316 -1.45752,7.58822 -1.45752,7.1543 L-1.45752,-0.76123 C-1.45752,-1.18115 -1.25456,-1.49609 -0.848633,-1.70605 C-0.512695,-1.95801 -0.344727,-2.30094 -0.344727,-2.73486 L-0.344727,-4.79248 C-0.344727,-5.14242 -0.222249,-5.45386 0.0227051,-5.72681 C0.26766,-5.99976 0.565104,-6.16423 0.915039,-6.22021 L4.98828,-7.08105 L5.26123,-7.08105 L5.59717,-7.08105 L9.7334,-6.22021 C10.0413,-6.16423 10.3108,-5.99976 10.5417,-5.72681 C10.7727,-5.45386 10.8882,-5.14242 10.8882,-4.79248 L10.8882,-2.73486 C10.8882,-2.32894 11.0911,-1.986 11.4971,-1.70605 C11.833,-1.52409 12.001,-1.20915 12.001,-0.76123 L12.001,7.1543 C12.001,7.61621 11.833,7.93115 11.4971,8.09912 L9.2085,9.40088 M5.84912,-3.84766 C5.84912,-3.67969 5.9401,-3.5957 6.12207,-3.5957 L9.46045,-2.90283 L9.54443,-2.90283 C9.78239,-2.90283 9.90137,-2.98682 9.90137,-3.15479 L9.90137,-4.79248 C9.90137,-4.84847 9.86637,-4.90446 9.79639,-4.96045 C9.7264,-5.01644 9.64242,-5.04443 9.54443,-5.04443 L6.20605,-5.69531 C5.9681,-5.69531 5.84912,-5.59733 5.84912,-5.40137 L5.84912,-3.84766 M7.92773,10.8916 C7.98372,10.8916 8.02572,10.8776 8.05371,10.8496 C8.08171,10.8216 8.06771,10.7796 8.01172,10.7236 C7.95573,10.6676 7.85425,10.5172 7.70728,10.2722 C7.5603,10.0273 7.48682,9.87679 7.48682,9.8208 C7.43083,9.8208 7.40283,9.8068 7.40283,9.77881 C7.40283,9.75081 7.37484,9.73682 7.31885,9.73682 L3.22461,9.73682 C3.16862,9.73682 3.14063,9.75081 3.14063,9.77881 C3.14063,9.8068 3.11263,9.8208 3.05664,9.8208 C3.05664,9.87679 2.97266,10.0273 2.80469,10.2722 C2.63672,10.5172 2.55273,10.6676 2.55273,10.7236 C2.48275,10.7796 2.46525,10.8216 2.50024,10.8496 C2.53524,10.8776 2.58073,10.8916 2.63672,10.8916 L7.92773,10.8916 M5.26123,-2.04199 C4.79932,-2.04199 4.40389,-1.87052 4.07495,-1.52759 C3.74601,-1.18465 3.58154,-0.768229 3.58154,-0.27832 C3.58154,0.211589 3.74601,0.621012 4.07495,0.949951 C4.40389,1.27889 4.79932,1.44336 5.26123,1.44336 C5.76514,1.44336 6.19206,1.27889 6.54199,0.949951 C6.89193,0.621012 7.06689,0.211589 7.06689,-0.27832 C7.06689,-0.768229 6.89193,-1.18465 6.54199,-1.52759 C6.19206,-1.87052 5.76514,-2.04199 5.26123,-2.04199 M0.74707,-3.15479 C0.74707,-2.98682 0.859049,-2.90283 1.08301,-2.90283 L1.16699,-2.90283 L4.44238,-3.5957 C4.61035,-3.5957 4.69434,-3.67969 4.69434,-3.84766 L4.77832,-5.40137 C4.77832,-5.59733 4.66634,-5.69531 4.44238,-5.69531 L4.3584,-5.69531 L0.999023,-5.04443 C0.943034,-5.04443 0.887044,-5.01644 0.831055,-4.96045 C0.775065,-4.90446 0.74707,-4.84847 0.74707,-4.79248 L0.74707,-3.15479 M1.33496,5.87354 C1.6569,5.87354 1.92285,5.76506 2.13281,5.5481 C2.34277,5.33114 2.44775,5.06868 2.44775,4.76074 C2.44775,4.4668 2.34277,4.22534 2.13281,4.03638 C1.92285,3.84741 1.6569,3.75293 1.33496,3.75293 C1.02702,3.75293 0.778564,3.84741 0.5896,4.03638 C0.400635,4.22534 0.306152,4.4668 0.306152,4.76074 C0.306152,5.06868 0.400635,5.33114 0.5896,5.5481 C0.778564,5.76506 1.02702,5.87354 1.33496,5.87354 M9.29248,13.0542 C9.23649,12.9982 9.13851,12.8267 8.99854,12.5398 C8.85856,12.2528 8.75358,12.1094 8.68359,12.1094 C8.68359,12.0534 8.6556,12.0254 8.59961,12.0254 L1.94385,12.0254 L1.90186,12.0254 C1.87386,12.0254 1.85986,12.0534 1.85986,12.1094 C1.80387,12.1094 1.70239,12.2528 1.55542,12.5398 C1.40845,12.8267 1.30697,12.9982 1.25098,13.0542 C1.25098,13.1102 1.27897,13.1382 1.33496,13.1382 L9.2085,13.1382 C9.26449,13.1382 9.29248,13.1102 9.29248,13.0542 M8.0957,4.76074 C8.0957,5.06868 8.18669,5.33114 8.36865,5.5481 C8.55062,5.76506 8.80257,5.87354 9.12451,5.87354 C9.43245,5.87354 9.68791,5.76506 9.89087,5.5481 C10.0938,5.33114 10.1953,5.06868 10.1953,4.76074 C10.1953,4.4668 10.0938,4.22534 9.89087,4.03638 C9.68791,3.84741 9.43245,3.75293 9.12451,3.75293 C8.80257,3.75293 8.55062,3.84741 8.36865,4.03638 C8.18669,4.22534 8.0957,4.4668 8.0957,4.76074 M-9.66699,6.81836 L-3.95605,6.81836 L-3.95605,14.7759 L-11.9556,14.7759 L-11.9556,-5.69531 L-5.44678,-4.28857 L-4.73291,-2.98682 L-9.66699,-2.98682 L-9.66699,6.81836"/>
</g>

<g fill="#3d97f1" fill-opacity="1" stroke="none" transform="matrix(1,0,0,1,0,0)"
font-family="MS Shell Dlg 2" font-size="7.8" font-weight="400" font-style="normal" 
>
</g>
</g>
</svg>
